public/images/logo.svg

<svg fill="none" height="25" viewBox="0 0 127 25" width="127" xmlns="http://www.w3.org/2000/svg"><path d="m118.108 19.0478v-8.784h8.784v8.784z" fill="#1cba9b"/><g fill="#000"><path d="m8.44233 24.5849c-1.534 0-2.977-.299-4.329-.897-1.326-.598-2.535-1.625-3.627002-3.081l3.237002-3.12c.884.91 1.729 1.56 2.535 1.95s1.69.585 2.652.585c.572 0 1.027-.117 1.36497-.351.364-.26.546-.572.546-.936 0-.312-.104-.572-.312-.78s-.59797-.416-1.16997-.624-1.404-.455-2.496-.741c-2.002-.494-3.497-1.209-4.485-2.145-.962-.962-1.443002-2.236-1.443002-3.822 0-1.14399.299002-2.18399.897002-3.11999.598-.962 1.456-1.729 2.574-2.301s2.444-.858 3.978-.858c1.81997 0 3.36697.351 4.64097 1.053 1.274.676 2.327 1.508 3.159 2.496l-3.51 3.00299c-.572-.52-1.261-.96199-2.067-1.32599-.80597-.364-1.71597-.546-2.72997-.546-.546 0-1.014.104-1.404.312s-.585.51999-.585.93599c0 .39.234.715.702.975s1.404.559 2.808.897c2.36597.572 4.05597 1.339 5.06997 2.301 1.04.962 1.56 2.249 1.56 3.861 0 1.248-.325 2.353-.975 3.315-.65.936-1.547 1.664-2.691 2.184s-2.44397.78-3.89997.78z"/><path d="m27.598 24.3119c-2.106 0-3.77-.52-4.992-1.56-1.196-1.04-1.794-2.743-1.794-5.109v-12.47999l-.078-.234 1.17-4.602006h4.602v16.067996c0 .884.208 1.521.624 1.911.416.364.962.546 1.638.546.39 0 .754-.026 1.092-.078.364-.078.663-.156.897-.234v5.343c-.442.13-.923.234-1.443.312-.494.078-1.066.117-1.716.117zm-9.75-14.157v-5.22599h12.909v5.22599z"/><path d="m42.7154 24.3509c-1.898 0-3.575-.403-5.031-1.209-1.43-.806-2.548-1.95-3.354-3.432-.78-1.482-1.17-3.224-1.17-5.226 0-1.976.39-3.718 1.17-5.22599.806-1.508 1.924-2.678 3.354-3.51 1.456-.85801 3.133-1.28701 5.031-1.28701 1.95 0 3.64.44201 5.07 1.32601s2.535 2.08 3.315 3.588c.78 1.48199 1.17 3.15899 1.17 5.03099 0 .338-.013.663-.039.975s-.052.559-.078.741h-14.547v-4.056h10.179l-.663 1.677c0-1.43-.364-2.6-1.092-3.51-.702-.90999-1.794-1.36499-3.276-1.36499-1.326 0-2.392.403-3.198 1.20899-.78.806-1.17 1.872-1.17 3.198v2.145c0 1.43.403 2.548 1.209 3.354.832.78 1.976 1.17 3.432 1.17 1.222 0 2.184-.247 2.886-.741.728-.494 1.339-1.105 1.833-1.833l3.861 2.145c-.832 1.534-2.002 2.73-3.51 3.588-1.508.832-3.302 1.248-5.382 1.248z"/><path d="m72.6074 4.92891-6.864 19.07099h-5.499l-7.215-19.07099h5.85l4.875 14.46899h-1.56l4.68-14.46899z"/><path d="m82.6295 24.3509c-1.898 0-3.575-.403-5.031-1.209-1.43-.806-2.548-1.95-3.354-3.432-.78-1.482-1.17-3.224-1.17-5.226 0-1.976.39-3.718 1.17-5.22599.806-1.508 1.924-2.678 3.354-3.51 1.456-.85801 3.133-1.28701 5.031-1.28701 1.95 0 3.64.44201 5.07 1.32601s2.535 2.08 3.315 3.588c.78 1.48199 1.17 3.15899 1.17 5.03099 0 .338-.013.663-.039.975s-.052.559-.078.741h-14.547v-4.056h10.179l-.663 1.677c0-1.43-.364-2.6-1.092-3.51-.702-.90999-1.794-1.36499-3.276-1.36499-1.326 0-2.392.403-3.198 1.20899-.78.806-1.17 1.872-1.17 3.198v2.145c0 1.43.403 2.548 1.209 3.354.832.78 1.976 1.17 3.432 1.17 1.222 0 2.184-.247 2.886-.741.728-.494 1.339-1.105 1.833-1.833l3.861 2.145c-.832 1.534-2.002 2.73-3.51 3.588-1.508.832-3.302 1.248-5.382 1.248z"/><path d="m106.777 4.4609c1.274 0 2.314.221 3.12.66301.806.416 1.417 1.001 1.833 1.755.442.754.728 1.612.858 2.574.156.93599.234 1.91099.234 2.92499v11.622h-5.694v-11.31c0-1.092-.195-1.807-.585-2.145-.39-.364-.91-.54599-1.56-.54599-.546 0-1.118.11699-1.716.35099-.572.208-1.131.507-1.677.897s-1.027.832-1.443 1.326l-1.0135-2.88599h1.5985v14.31299h-5.6935v-19.07099h4.212l1.1695 3.783-1.9495-.156c.676-.754 1.443-1.443 2.3005-2.06701.858-.62399 1.794-1.11799 2.808-1.48199 1.014-.36401 2.08-.54601 3.198-.54601z"/></g></svg>

<svg width="127" height="25" viewBox="0 0 127 25" fill="none" xmlns="http://www.w3.org/2000/svg">
<path d="M118.108 19.0478V10.2638H126.892V19.0478H118.108Z" fill="#1CBA9B"/>
<path d="M8.44233 24.5849C6.90833 24.5849 5.46533 24.2859 4.11333 23.6879C2.78733 23.0899 1.57833 22.0629 0.486328 20.6069L3.72333 17.4869C4.60733 18.3969 5.45233 19.0469 6.25833 19.4369C7.06433 19.8269 7.94833 20.0219 8.91033 20.0219C9.48233 20.0219 9.93733 19.9049 10.2753 19.6709C10.6393 19.4109 10.8213 19.0989 10.8213 18.7349C10.8213 18.4229 10.7173 18.1629 10.5093 17.9549C10.3013 17.7469 9.91133 17.5389 9.33933 17.3309C8.76733 17.1229 7.93533 16.8759 6.84333 16.5899C4.84133 16.0959 3.34633 15.3809 2.35833 14.4449C1.39633 13.4829 0.915328 12.2089 0.915328 10.6229C0.915328 9.47891 1.21433 8.43891 1.81233 7.50291C2.41033 6.54091 3.26833 5.77391 4.38633 5.20191C5.50433 4.62991 6.83033 4.34391 8.36433 4.34391C10.1843 4.34391 11.7313 4.69491 13.0053 5.39691C14.2793 6.07291 15.3323 6.90491 16.1643 7.89291L12.6543 10.8959C12.0823 10.3759 11.3933 9.93391 10.5873 9.56991C9.78133 9.20591 8.87133 9.02391 7.85733 9.02391C7.31133 9.02391 6.84333 9.12791 6.45333 9.33591C6.06333 9.54391 5.86833 9.8559 5.86833 10.2719C5.86833 10.6619 6.10233 10.9869 6.57033 11.2469C7.03833 11.5069 7.97433 11.8059 9.37833 12.1439C11.7443 12.7159 13.4343 13.4829 14.4483 14.4449C15.4883 15.4069 16.0083 16.6939 16.0083 18.3059C16.0083 19.5539 15.6833 20.6589 15.0333 21.6209C14.3833 22.5569 13.4863 23.2849 12.3423 23.8049C11.1983 24.3249 9.89833 24.5849 8.44233 24.5849Z" fill="black"/>
<path d="M27.598 24.3119C25.492 24.3119 23.828 23.7919 22.606 22.7519C21.41 21.7119 20.812 20.0089 20.812 17.6429V5.16291L20.734 4.92891L21.904 0.326904H26.506V16.3949C26.506 17.2789 26.714 17.9159 27.13 18.3059C27.546 18.6699 28.092 18.8519 28.768 18.8519C29.158 18.8519 29.522 18.8259 29.86 18.7739C30.224 18.6959 30.523 18.6179 30.757 18.5399V23.8829C30.315 24.0129 29.834 24.1169 29.314 24.1949C28.82 24.2729 28.248 24.3119 27.598 24.3119ZM17.848 10.1549V4.92891H30.757V10.1549H17.848Z" fill="black"/>
<path d="M42.7154 24.3509C40.8174 24.3509 39.1404 23.9479 37.6844 23.1419C36.2544 22.3359 35.1364 21.1919 34.3304 19.7099C33.5504 18.2279 33.1604 16.4859 33.1604 14.4839C33.1604 12.5079 33.5504 10.7659 34.3304 9.25791C35.1364 7.74991 36.2544 6.57991 37.6844 5.74791C39.1404 4.8899 40.8174 4.4609 42.7154 4.4609C44.6654 4.4609 46.3554 4.90291 47.7854 5.78691C49.2154 6.67091 50.3204 7.86691 51.1004 9.37491C51.8804 10.8569 52.2704 12.5339 52.2704 14.4059C52.2704 14.7439 52.2574 15.0689 52.2314 15.3809C52.2054 15.6929 52.1794 15.9399 52.1534 16.1219H37.6064V12.0659H47.7854L47.1224 13.7429C47.1224 12.3129 46.7584 11.1429 46.0304 10.2329C45.3284 9.32291 44.2364 8.86791 42.7544 8.86791C41.4284 8.86791 40.3624 9.27091 39.5564 10.0769C38.7764 10.8829 38.3864 11.9489 38.3864 13.2749V15.4199C38.3864 16.8499 38.7894 17.9679 39.5954 18.7739C40.4274 19.5539 41.5714 19.9439 43.0274 19.9439C44.2494 19.9439 45.2114 19.6969 45.9134 19.2029C46.6414 18.7089 47.2524 18.0979 47.7464 17.3699L51.6074 19.5149C50.7754 21.0489 49.6054 22.2449 48.0974 23.1029C46.5894 23.9349 44.7954 24.3509 42.7154 24.3509Z" fill="black"/>
<path d="M72.6074 4.92891L65.7434 23.9999H60.2444L53.0294 4.92891H58.8794L63.7544 19.3979H62.1944L66.8744 4.92891H72.6074Z" fill="black"/>
<path d="M82.6295 24.3509C80.7315 24.3509 79.0545 23.9479 77.5985 23.1419C76.1685 22.3359 75.0505 21.1919 74.2445 19.7099C73.4645 18.2279 73.0745 16.4859 73.0745 14.4839C73.0745 12.5079 73.4645 10.7659 74.2445 9.25791C75.0505 7.74991 76.1685 6.57991 77.5985 5.74791C79.0545 4.8899 80.7315 4.4609 82.6295 4.4609C84.5795 4.4609 86.2695 4.90291 87.6995 5.78691C89.1295 6.67091 90.2345 7.86691 91.0145 9.37491C91.7945 10.8569 92.1845 12.5339 92.1845 14.4059C92.1845 14.7439 92.1715 15.0689 92.1455 15.3809C92.1195 15.6929 92.0935 15.9399 92.0675 16.1219H77.5205V12.0659H87.6995L87.0365 13.7429C87.0365 12.3129 86.6725 11.1429 85.9445 10.2329C85.2425 9.32291 84.1505 8.86791 82.6685 8.86791C81.3425 8.86791 80.2765 9.27091 79.4705 10.0769C78.6905 10.8829 78.3005 11.9489 78.3005 13.2749V15.4199C78.3005 16.8499 78.7035 17.9679 79.5095 18.7739C80.3415 19.5539 81.4855 19.9439 82.9415 19.9439C84.1635 19.9439 85.1255 19.6969 85.8275 19.2029C86.5555 18.7089 87.1665 18.0979 87.6605 17.3699L91.5215 19.5149C90.6895 21.0489 89.5195 22.2449 88.0115 23.1029C86.5035 23.9349 84.7095 24.3509 82.6295 24.3509Z" fill="black"/>
<path d="M106.777 4.4609C108.051 4.4609 109.091 4.6819 109.897 5.12391C110.703 5.53991 111.314 6.12491 111.73 6.87891C112.172 7.63291 112.458 8.49091 112.588 9.45291C112.744 10.3889 112.822 11.3639 112.822 12.3779V23.9999H107.128V12.6899C107.128 11.5979 106.933 10.8829 106.543 10.5449C106.153 10.1809 105.633 9.99891 104.983 9.99891C104.437 9.99891 103.865 10.1159 103.267 10.3499C102.695 10.5579 102.136 10.8569 101.59 11.2469C101.044 11.6369 100.563 12.0789 100.147 12.5729L99.1335 9.68691H100.732V23.9999H95.0385V4.92891H99.2505L100.42 8.71191L98.4705 8.55591C99.1465 7.80191 99.9135 7.11291 100.771 6.4889C101.629 5.86491 102.565 5.37091 103.579 5.00691C104.593 4.6429 105.659 4.4609 106.777 4.4609Z" fill="black"/>
</svg>
